!!!COM: Vivaldi, Antonio Lucio
!!!CDT: 1678/03/04-1741/08/28
!!!OPR: 12 sonatas for two violins and basso continuo
!!!OTL: Sonata in D minor, op. @{OPS}, no. @{ONM} (@{SCT})
!!!OPS: 1
!!!ONM: 8
!!!OMV: 1. Preludio
!!!SCT: RV 64
!!!SCA: Antonio Vivaldi: Thematisch-systematisches Verzeichnis seiner Werke (Ryom-Verzeichnis)
!!!OMD: Largo
!!!key: d
**kern	**dynam	**fb	**kern	**dynam	**kern	**dynam
*part3	*	*	*part2	*	*part1	*
*staff3	*	*	*staff2	*	*staff1	*
*ICstr&ICklav	*	*	*ICstr	*	*ICstr	*
*Icello&Icemba	*	*	*Ivioln	*	*Ivioln	*
*	*	*	*I#2	*	*I#1	*
*I"Violoncello\nContinuo	*	*	*I"Violin 2	*	*I"Violin 1	*
*I'bc	*	*	*I'v2	*	*I'v1	*
*>[A,A,B,B]	*>[A,A,B,B]	*>[A,A,B,B]	*>[A,A,B,B]	*>[A,A,B,B]	*>[A,A,B,B]	*>[A,A,B,B]
*>norep[A,B]	*>norep[A,B]	*>norep[A,B]	*>norep[A,B]	*>norep[A,B]	*>norep[A,B]	*>norep[A,B]
*>A	*>A	*>A	*>A	*>A	*>A	*>A
*clefF4	*	*	*clefG2	*	*clefG2	*
*k[b-]	*	*	*k[b-]	*	*k[b-]	*
*d:	*	*	*d:	*	*d:	*
*M4/4	*	*	*M4/4	*	*M4/4	*
*met(c)	*	*	*met(c)	*	*met(c)	*
*MM50	*	*	*MM50	*	*MM50	*
=1	=1	=1	=1	=1	=1	=1
8D\L	.	.	8f/L	.	(16dd/LL	.
.	.	.	.	.	16a/	.
8D\	.	.	8f/	.	16f/	.
.	.	.	.	.	16a/JJ)	.
8D\	.	.	8f/	.	(16d/LL	.
.	.	.	.	.	16f/	.
8D\J	.	.	8f/J	.	16a/	.
.	.	.	.	.	16dd/JJ)	.
8A\L	.	#	8e/L	.	(16cc#X/LL	.
.	.	.	.	.	16a/	.
8A\	.	.	8e/	.	16e/	.
.	.	.	.	.	16c#X/JJ)	.
8C#X\	.	6 5	8ee/	.	(16A/LL	.
.	.	.	.	.	16ee/	.
8C#X\J	.	.	8ee/J	.	16aa/	.
.	.	.	.	.	16gg/JJ)	.
=2	=2	=2	=2	=2	=2	=2
8D\L	.	.	8a\L	.	(16ff\LL	.
.	.	.	.	.	16dd\	.
8D\	.	.	8a\	.	16a\	.
.	.	.	.	.	16f\JJ)	.
8F\	.	6	8aa\	.	(16d\LL	.
.	.	.	.	.	16aa\	.
8F\J	.	.	8aa\J	.	16ddd\	.
.	.	.	.	.	16ccc\JJ)	.
8G\L	.	.	8dd\L	.	(16bb-y\LL	.
.	.	.	.	.	16aa\	.
8B-y\	.	.	8dd\	.	16gg\	.
.	.	.	.	.	16ff\JJ)	.
8C\	.	.	8gg\	.	(16ee\LL	.
.	.	.	.	.	16ddd\	.
8E\J	.	6 5	8gg\J	.	16ccc\	.
.	.	.	.	.	16bb-y\JJ)	.
=3	=3	=3	=3	=3	=3	=3
8.F\L	.	.	8cc/L	.	(16aa\LL	.
.	.	.	.	.	16bb-y\	.
.	.	.	8cc/	.	16ccc\	.
16G\k	.	.	.	.	16ee\JJ)	.
8A\	.	6	8cc/	.	(16ff\LL	.
.	.	.	.	.	16cc\	.
8B-y\J	.	.	8f/J	.	16dd\	.
.	.	.	.	.	16b-y\JJ)	.
8c\L	.	6 4	8f/L	.	(16a\LL	.
.	.	.	.	.	16cc\	.
8c\	.	.	8f/	.	16ff\	.
.	.	.	.	.	16a\JJ)	.
8C\	.	5 3	8e/	.	(16g\LL	.
.	.	.	.	.	16cc\	.
8C\J	.	.	8cc/J	.	16ff\	.
.	.	.	.	.	16ee\JJ)	.
!!LO:LB:g=original
=4	=4	=4	=4	=4	=4	=4
4FF/	.	.	4a/	.	(16ff\LL	.
.	.	.	.	.	16cc\	.
.	.	.	.	.	16a\	.
.	.	.	.	.	16g\JJ)	.
4r	.	.	4r	.	(16f\LL	.
.	.	.	.	.	16ff\	.
.	.	.	.	.	16aa\	.
.	.	.	.	.	16gg\JJ)	.
8D\L	.	7 #	8a/L	.	(16ff#X\LL	.
.	.	.	.	.	16dd\	.
8D\	.	.	8a/	.	16cc\	.
.	.	.	.	.	16ee-X\JJ)	.
8F#X\	.	7-r 5	8a/	.	(16ee-y/LL	.
.	.	.	.	.	16a/	.
8F#y\J	.	.	8a/J	.	16d/	.
.	.	.	.	.	16cc/JJ)	.
=5	=5	=5	=5	=5	=5	=5
4G\	.	.	4d/	.	(16b-y/LL	.
.	.	.	.	.	16g/	.
.	.	.	.	.	16b-y/	.
.	.	.	.	.	16dd/JJ)	.
4r	.	.	4r	.	(16gg\LL	.
.	.	.	.	.	16dd\	.
.	.	.	.	.	16gg\	.
.	.	.	.	.	16dd\JJ)	.
8G#X\L	.	6 5#|	8dd\L	.	(16bbn\LL	.
.	.	.	.	.	16ee\	.
8G#y\	.	.	8dd\	.	16dd\	.
.	.	.	.	.	16bbn\JJ)	.
8E\	.	7 #	8dd\	.	(16bb\LL	.
.	.	.	.	.	16ee\	.
8E\J	.	.	8dd\J	.	16dd\	.
.	.	.	.	.	16gg#X\JJ)	.
=6	=6	=6	=6	=6	=6	=6
4AA/	.	.	4cc\	.	(16aa\LL	.
.	.	.	.	.	16ee\	.
.	.	.	.	.	16cc\	.
.	.	.	.	.	16bn\JJ)	.
8r	.	.	8r	.	(16a\LL	.
.	.	.	.	.	16ee\	.
8C/	.	6	8ee\	.	16dd\	.
.	.	.	.	.	16cc\JJ)	.
8D\L	.	5	8a\L	.	(16ff\LL	.
.	.	.	.	.	16dd\	.
8D\	.	6#/	8bn\	.	16cc\	.
.	.	.	.	.	16bn\JJ)	.
8E\	.	5 #	8b\	.	(16gg#X\LL	.
.	.	.	.	.	16ee\	.
8E\J	.	6	8ee\J	.	16dd\	.
.	.	.	.	.	16cc\JJ)	.
!!LO:LB:g=original
=7	=7	=7	=7	=7	=7	=7
8F/L	.	7	8ee\L	.	(16aa\LL	.
.	.	.	.	.	16ff\	.
8F/	.	6	8dd\	.	16ee\	.
.	.	.	.	.	16dd\JJ)	.
8GG#X/	.	6 5	8dd\	.	(16bbn\LL	.
.	.	.	.	.	16gg#X\	.
8GG#y/J	.	.	8dd\J	.	16ff#X\	.
.	.	.	.	.	16ee\JJ)	.
8AA/L	.	5 4	8dd\L	.	(16ccc\LL	.
.	.	.	.	.	16gg#X\	.
8AA/	.	3	16cc\L	.	16aa\	.
.	.	.	16dd\JJ	.	16cc\JJ)	.
8E/	.	5#| 4	4bn\	.	(16e\LL	.
.	.	.	.	.	16bn\	.
8EE/J	.	#	.	.	16aa\	.
.	.	.	.	.	16gg#X\JJ)	.
=8	=8	=8	=8	=8	=8	=8
8AA/L	.	.	8a/L	.	(16aa\LL	.
.	.	.	.	.	16ee\	.
8AA/	.	.	8a/	.	16cc\	.
.	.	.	.	.	16a\JJ)	.
8AA/	.	.	8a/	.	(16cc/LL	.
.	.	.	.	.	16a/	.
8AA/J	.	.	8a/J	.	16e/	.
.	.	.	.	.	16c/JJ)	.
2AA/	.	.	2a/	.	2A/	.
=9:|!|:	=9:|!|:	=9:|!|:	=9:|!|:	=9:|!|:	=9:|!|:	=9:|!|:
*>B	*>B	*>B	*>B	*>B	*>B	*>B
8AA/L	.	#	8cc#X\L	.	(16aa\LL	.
.	.	.	.	.	16ee\	.
8AA/	.	.	8cc#y\	.	16cc#X\	.
.	.	.	.	.	16bn\JJ)	.
8C#X/	.	6	8ee\	.	(16a\LL	.
.	.	.	.	.	16ee\	.
8C#y/J	.	.	8ee\J	.	16aa\	.
.	.	.	.	.	16gg\JJ)	.
8D\L	.	-	8a/L	.	(16ff\LL	.
.	.	.	.	.	16dd\	.
8D\	.	.	8a/	.	16a\	.
.	.	.	.	.	16f\JJ)	.
8F#X\	.	6	8a/	.	(16d/LL	.
.	.	.	.	.	16a/	.
8F#y\J	.	.	8a/J	.	16dd/	.
.	.	.	.	.	16cc#y/JJ)	.
=10	=10	=10	=10	=10	=10	=10
8G\L	.	-	8d/L	.	(16b-X/LL	.
.	.	.	.	.	16g/	.
8G\	.	.	8b-y/	.	16d/	.
.	.	.	.	.	16B-y/JJ)	.
8G\	.	.	8b-y/	.	(16G/LL	.
.	.	.	.	.	16d/	.
8G\J	.	.	8b-y/J	.	16g/	.
.	.	.	.	.	16f/JJ)	.
8A\L	.	#	8c#X/L	.	(16e/LL	.
.	.	.	.	.	16a/	.
8A\	.	.	8c#y/	.	16e/	.
.	.	.	.	.	16c#X/JJ)	.
8A\	.	.	8e/	.	(16A/LL	.
.	.	.	.	.	16e/	.
8C#X\J	.	6	8e/J	.	16a/	.
.	.	.	.	.	16g/JJ)	.
!!LO:PB:g=original
=11	=11	=11	=11	=11	=11	=11
4D\	.	.	4A/	.	(16f/LL	.
.	.	.	.	.	16d/	.
.	.	.	.	.	16f/	.
.	.	.	.	.	16a/JJ)	.
4r	.	.	4r	.	(16dd/LL	.
.	.	.	.	.	16a/	.
.	.	.	.	.	16f/	.
.	.	.	.	.	16dd/JJ)	.
8F#X\L	.	7-r 5	8a/L	.	(16ee-X\LL	.
.	.	.	.	.	16cc\	.
8F#y\	.	.	8a/	.	16a\	.
.	.	.	.	.	16f#X\JJ)	.
8F#y\	.	6	8a/	.	(16dd/LL	.
.	.	.	.	.	16a/	.
8F#y\J	.	.	8a/J	.	16f#X/	.
.	.	.	.	.	16d/JJ)	.
=12	=12	=12	=12	=12	=12	=12
4G\	.	.	4d/	.	(16b-y\LL	.
.	.	.	.	.	16g\	.
.	.	.	.	.	16b-y\	.
.	.	.	.	.	16dd\JJ)	.
4r	.	.	4r	.	(16gg\LL	.
.	.	.	.	.	16dd\	.
.	.	.	.	.	16bn\	.
.	.	.	.	.	16gg\JJ)	.
8BBn/L	.	7-r 5	8dd\L	.	(16aa-X\LL	.
.	.	.	.	.	16ff\	.
8BB/	.	.	8dd\	.	16dd\	.
.	.	.	.	.	16bn\JJ)	.
8BB/	.	6	8dd\	.	(16gg\LL	.
.	.	.	.	.	16dd\	.
8BB/J	.	.	8dd\J	.	16bn\	.
.	.	.	.	.	16g\JJ)	.
=13	=13	=13	=13	=13	=13	=13
8C/L	.	-	8g/L	.	(16ee-X/LL	.
.	.	.	.	.	16cc/	.
8C/	.	.	8g/	.	16g/	.
.	.	.	.	.	16e-X/JJ)	.
8C/	.	.	8g/	.	(16c/LL	.
.	.	.	.	.	16e-X/	.
8C/J	.	.	8g/J	.	16g/	.
.	.	.	.	.	16cc/JJ)	.
8BB-y/L	.	6 4#|	8g/L	.	(16een\LL	.
.	.	.	.	.	16cc\	.
8BB-y/	.	.	8g/	.	16b-y\	.
.	.	.	.	.	16ee\JJ)	.
8BB-y/	.	.	8en/	.	(16gg\LL	.
.	.	.	.	.	16een\	.
8BB-y/J	.	.	8e/J	.	16b-y\	.
.	.	.	.	.	16gg\JJ)	.
!!LO:LB:g=original
=14	=14	=14	=14	=14	=14	=14
8AA-X/L	.	6	8f/L	.	(16aa-X\LL	.
.	.	.	.	.	16een\)	.
8AA-y/	.	.	8f/	.	(16ff\	.
.	.	.	.	.	16cc\JJ)	.
8BB-y/	.	-	8f/	.	(16dd-X/LL	.
.	.	.	.	.	16a-X/)	.
8D-X/J	.	6	8f/J	.	(16b-y/	.
.	.	.	.	.	16f/JJ)	.
8C\L	.	7 n	8en/L	.	(16g/LL	.
.	.	.	.	.	16f/	.
8C\	.	.	8e/	.	16en/	.
.	.	.	.	.	16d/JJ)	.
8En\	.	6 5	8g/	.	(16c/LL	.
.	.	.	.	.	16B-y/	.
8E\J	.	.	8g/J	.	16A-X/	.
.	.	.	.	.	16G/JJ)	.
=15	=15	=15	=15	=15	=15	=15
8F/L	.	-	8c/L	.	(16A-X/LL	.
.	.	.	.	.	16c/	.
8F/	.	.	8c/	.	16f/	.
.	.	.	.	.	16a-X/JJ)	.
8AA-X/	.	6	8f/	.	(16c/LL	.
.	.	.	.	.	16f/	.
8AA-y/J	.	.	8f/J	.	16a-X/	.
.	.	.	.	.	16cc/JJ)	.
8BB-y/L	.	7-r 5 -	8dd-X\L	.	(16f\LL	.
.	.	.	.	.	16a-X\	.
8BB-y/	.	.	8dd-y\	.	16cc\	.
.	.	.	.	.	16ff\JJ)	.
8C/	.	5 4	8g\	.	(16g\LL	.
.	.	.	.	.	16cc\	.
8C/J	.	3	8g\J	.	16ff\	.
.	.	.	.	.	16ee\JJ)	.
=16	=16	=16	=16	=16	=16	=16
4F\	.	.	4f/	.	(16ff\LL	.
.	.	.	.	.	16cc\)	.
.	.	.	.	.	(16aan\	.
.	.	.	.	.	16ff\JJ)	.
4r	.	.	4r	.	(16cc\LL	.
.	.	.	.	.	16ff\)	.
.	.	.	.	.	(16aa\	.
.	.	.	.	.	16ff\JJ)	.
8A\L	.	#	8cc#X\L	.	(16ee\LL	.
.	.	.	.	.	16cc#X\	.
8A\	.	.	8cc#y\	.	16a\	.
.	.	.	.	.	16cc#y\JJ)	.
8G\	.	6 4#|	8cc#y\	.	(16ee\LL	.
.	.	.	.	.	16gg\	.
8G\J	.	.	8ee\J	.	16cc#X\	.
.	.	.	.	.	16a\JJ)	.
=17	=17	=17	=17	=17	=17	=17
4F\	.	6	4a/	.	(16dd/LL	.
.	.	.	.	.	16a/	.
.	.	.	.	.	16f/	.
.	.	.	.	.	16e/JJ)	.
8r	.	.	8r	.	(16d/LL	.
.	.	.	.	.	16a/	.
8F\	.	.	8a/	.	16g/	.
.	.	.	.	.	16f/JJ)	.
8G\L	.	5	8d/L	.	(16b-y/LL	.
.	.	.	.	.	16g/	.
8G\	.	6	8e/	.	16f/	.
.	.	.	.	.	16e/JJ)	.
8A\	.	5 #	8e/	.	(16cc#X/LL	.
.	.	.	.	.	16a/	.
8A\J	.	6	8a/J	.	16g/	.
.	.	.	.	.	16f/JJ)	.
!!LO:LB:g=original
=18	=18	=18	=18	=18	=18	=18
8B-y\L	.	7	8a/L	.	(16dd/LL	.
.	.	.	.	.	16b-y/	.
8B-y\	.	6	8g/	.	16a/	.
.	.	.	.	.	16g/JJ)	.
8C#X\	.	6 5	8g/	.	(16ee\LL	.
.	.	.	.	.	16cc#X\	.
8C#y\J	.	.	8g/J	.	16bn\	.
.	.	.	.	.	16a\JJ)	.
8D\L	.	5 4	8g/L	.	(16ff\LL	.
.	.	.	.	.	16cc#X\)	.
8D\	.	3	16f/L	.	(16dd\	.
.	.	.	16g/JJ	.	16f\JJ)	.
8A\	.	5 4	4e/	.	(16A/LL	.
.	.	.	.	.	16e/)	.
8AA\J	.	#	.	.	(16dd/	.
.	.	.	.	.	16cc#X/JJ)	.
=19	=19	=19	=19	=19	=19	=19
4D\	.	.	4d/	.	(16dd/LL	p
.	.	.	.	.	16a/	.
.	.	.	.	.	16f/	.
.	.	.	.	.	16e/JJ)	.
8r	.	.	8r	.	(16d/LL	.
.	.	.	.	.	16a/	.
8F\	p	6	8a/	p	16g/	.
.	.	.	.	.	16f/JJ)	.
8G\L	.	5	8d/L	.	(16b-y/LL	.
.	.	.	.	.	16g/	.
8G\	.	6	8e/	.	16f/	.
.	.	.	.	.	16e/JJ)	.
8A\	.	5 #	8e/	.	(16cc#X/LL	.
.	.	.	.	.	16a/	.
8A\J	.	6	8a/J	.	16g/	.
.	.	.	.	.	16f/JJ)	.
=20	=20	=20	=20	=20	=20	=20
8B-y\L	.	7	8a/L	.	(16dd\LL	.
.	.	.	.	.	16b-y\	.
8B-y\	.	6	8g/	.	16a\	.
.	.	.	.	.	16g\JJ)	.
8C#X\	.	6 5	8g/	.	(16ee\LL	.
.	.	.	.	.	16cc#X\	.
8C#y\J	.	.	8g/J	.	16bn\	.
.	.	.	.	.	16a\JJ)	.
8D\L	.	5 4	8g/L	.	(16ff\LL	.
.	.	.	.	.	16cc#X\)	.
8D\	.	3	16f/L	.	(16dd\	.
.	.	.	16g/JJ	.	16f\JJ)	.
8A\	.	5 4	4e/	.	(16A/LL	.
.	.	.	.	.	16e/)	.
8AA\J	.	#	.	.	(16dd/	.
.	.	.	.	.	16cc#X/JJ)	.
=21	=21	=21	=21	=21	=21	=21
8D\L	.	.	8d/L	.	(16dd/LL	.
.	.	.	.	.	16a/	.
8D\	.	.	8d/	.	16f/	.
.	.	.	.	.	16d/JJ)	.
8D\	.	.	8d/	.	(16a/LL	.
.	.	.	.	.	16f/	.
8D\J	.	.	8d/J	.	16d/	.
.	.	.	.	.	16A/JJ)	.
2D\;	.	.	2d/;	.	2d/;	.
=:|!	=:|!	=:|!	=:|!	=:|!	=:|!	=:|!
*-	*-	*-	*-	*-	*-	*-
!!!SMS: RV 64 / Estienne Roger (No. 363), Amsterdam [facs.]
!!!ENC: Fran Bennion   rev. 05/14/21 E Correia
!!!END: 2004/10/20
!!!ONB: Converted from MuseData with musedata2hum on Sat May 11 12:01:56 2024
!!!YEM: (C) 2004, 2019 Center for Computer Assisted Research in the Humanities
!!!system-decoration: [(s1,s2,s3)]
!!!URL-info: https://wiki.ccarh.org/wiki/MuseData:_Antonio_Vivaldi#Op._1:_Suonate_da_camera_a_tr.C3.A8.2C_due_violini_e_violone_o_cembalo Information about Vivaldi Op. 1 on the CCARH wiki
!!!URL-pdf: https://pdf.musedata.org/vivaldi-op01-no08.pdf#page=1 MuseData edition
!!!URL-pdf: https://s9.imslp.org/files/imglnks/usimg/1/18/IMSLP280399-PMLP10351-Vivaldi_Sonatas_Op_1_-_Violino_Primo.pdf#page=12 Violino primo part, Amsterdam: Estienne Roger, n.d.(ca.1723). Plate 363.
!!!URL-pdf: https://s9.imslp.org/files/imglnks/usimg/d/d5/IMSLP280400-PMLP10351-Vivaldi_Sonatas_Op_1_-_Violino_Secondo.pdf#page=10 Violino secondo part, Amsterdam: Estienne Roger, n.d.(ca.1723). Plate 363.
!!!URL-pdf: https://s9.imslp.org/files/imglnks/usimg/8/89/IMSLP280401-PMLP10351-Vivaldi_Sonatas_Op_1_-_Organo_e_Violoncello.pdf#page=11 Organo e Violoncello parts, Amsterdam: Estienne Roger, n.d.(ca.1723). Plate 363.
!!!URL-youtube: https://www.youtube.com/watch?v=P5HHPe_W6Uo&t=464s L'Arte dell'Arco
!!!title: @{OTL}, mov. @{OMV}
!!!filter-vcross: vcross
!!!EEV: 2024/05/11
!!!source-file: https://bitbucket.org/musedata/vivaldi/src/master/roger/op1/no08/stage2/01/01
!!!source-file: https://bitbucket.org/musedata/vivaldi/src/master/roger/op1/no08/stage2/01/02
!!!source-file: https://bitbucket.org/musedata/vivaldi/src/master/roger/op1/no08/stage2/01/03
!!!source-file: https://bitbucket.org/musedata/vivaldi/src/master/roger/op1/no08/stage2/01/04
